X: 18385
T: Hungry Eye, The
R: jig
M: 6/8
K: Bminor
|:~B3 ~F3|~G3 EFG|(3.B.c.d B cfe|dec dcd|
~B3 (3.F.G.A .F|~G3 EFG|BdB cfe|dec JB3:|
|:~B3 def|b2b baf|~g3 efg|gbg faf|
fef dec|dcA ~G3|(3.B.c.d B cfe|dec JB3:|
|:(3.B.c.d B cAG|(3.B.c.d B ecd|(3.B.c.d Bc AB|GA FG ED|
(3.B.c.d B cAG|(3.B.c.d B ecd|(3.B.c.d B cfe|dec JB3:|

